X: 206
T: The Chieftain
B: O'Neill's 206
N: "Moderate"
N: "Collected by F.O'Neill"
Z: 1997 by John Chambers <jc@trillian.mit.edu>
M: C
L: 1/8
K:G
((3DEF) \
| (G3A) (GFED) | (d3{f}e) (d2Bd) | e2(dB) G2A2 | E4- Ez ((3DEF) |
| (G3A) (GFED) | (d3{f}e) (d2Bd) | e2(dB) G2A2 | G4- Gz ||
|| ((3Bcd) \
| (e3f) (edBA) | (G3B) (d2gf) | e2(dB) G2A2 | E4- Ez ((3DEF) |
| (G3A) (GFED) | (d3{f}e) (d2Bd) | e2(dB) G2A2 | G4- Gz ||


